images/src/cog.svg

<svg height="16" viewBox="0 0 16 16" width="16" xmlns="http://www.w3.org/2000/svg"><path d="m15.426 9.249c.045-.327.076-.658.076-.998 0-.36-.035-.71-.086-1.056l-2.275-.293c-.115-.426-.283-.827-.498-1.201l1.396-1.808c-.416-.551-.906-1.039-1.459-1.452l-1.807 1.391c-.373-.215-.774-.383-1.2-.499l-.292-2.252c-.338-.048-.677-.081-1.029-.081s-.694.033-1.032.082l-.291 2.251c-.426.116-.826.284-1.2.499l-1.805-1.391c-.552.413-1.044.901-1.459 1.452l1.395 1.808c-.215.374-.383.774-.499 1.2l-2.276.294c-.05.346-.085.696-.085 1.056 0 .34.031.671.077.998l2.285.295c.115.426.284.826.499 1.2l-1.417 1.836c.411.55.896 1.038 1.443 1.452l1.842-1.42c.374.215.774.383 1.2.498l.298 2.311c.337.047.677.08 1.025.08s.688-.033 1.021-.08l.299-2.311c.426-.115.826-.283 1.201-.498l1.842 1.42c.547-.414 1.031-.902 1.443-1.452l-1.416-1.837c.215-.373.383-.773.498-1.199zm-7.174 1.514c-1.406 0-2.543-1.137-2.543-2.541 0-1.402 1.137-2.541 2.543-2.541 1.402 0 2.541 1.138 2.541 2.541 0 1.404-1.139 2.541-2.541 2.541z"/></svg>

<svg
  xmlns='http://www.w3.org/2000/svg'
  width='16'
  height='16'
  viewBox='0 0 16 16'
  fill='#000'>
  <path
    d='M15.426 9.249C15.471 8.922 15.502 8.591 15.502 8.251C15.502 7.891 15.467 7.541 15.416 7.195L13.141 6.902C13.026 6.476 12.858 6.075 12.643 5.701L14.039 3.893C13.623 3.342 13.133 2.854 12.58 2.441L10.773 3.832C10.4 3.617 9.999 3.449 9.573 3.333L9.281 1.081C8.943 1.033 8.604 1 8.252 1C7.9 1 7.558 1.033 7.22 1.082L6.929 3.333C6.503 3.449 6.103 3.617 5.729 3.832L3.924 2.441C3.372 2.854 2.88 3.342 2.465 3.893L3.86 5.701C3.645 6.075 3.477 6.475 3.361 6.901L1.085 7.195C1.035 7.541 1 7.891 1 8.251C1 8.591 1.031 8.922 1.077 9.249L3.362 9.544C3.477 9.97 3.646 10.37 3.861 10.744L2.444 12.58C2.855 13.13 3.34 13.618 3.887 14.032L5.729 12.612C6.103 12.827 6.503 12.995 6.929 13.11L7.227 15.421C7.564 15.468 7.904 15.501 8.252 15.501C8.6 15.501 8.94 15.468 9.273 15.421L9.572 13.11C9.998 12.995 10.398 12.827 10.773 12.612L12.615 14.032C13.162 13.618 13.646 13.13 14.058 12.58L12.642 10.743C12.857 10.37 13.025 9.97 13.14 9.544L15.426 9.249ZM8.252 10.763C6.846 10.763 5.709 9.626 5.709 8.222C5.709 6.82 6.846 5.681 8.252 5.681C9.654 5.681 10.793 6.819 10.793 8.222C10.793 9.626 9.654 10.763 8.252 10.763Z' />
</svg>
